X: 10312
M: 6/8
L: 1/8
K: G
ded ded | g2G GFG | ABA ABc | d2c BAG |\
ded ded | g2G GFG | ABc BcA | A3 G2 :: d |\
ded ded | g2G GFG | ABA ABc | d2c BAG |\
ded ded | g2G GFG | ABc BcA | A3 G2 :|


